X:1
T:24 Italian Songs and Arias
T:Già il sole dal Gange
T:Alessandro Scarlatti (1659-1725) Alessandro Parisotti (1853-1913)
T:Canzonetta
T:Già il sole dal Gange
T:OpenScore (CC0)
T:OpenScore (CC0)
T:OpenScore (CC0)
T:OpenScore (CC0)
T:OpenScore (CC0)
T:OpenScore (CC0)
T:OpenScore (CC0)
T:OpenScore (CC0)
C:Alessandro Scarlatti
Z:OpenScore (CC0)
%%score ( 1 2 ) { ( 3 5 6 ) | ( 4 7 ) }
L:1/8
Q:1/4=128
M:3/4
K:Ab
V:1 treble nm="Voice"
V:2 treble 
V:3 treble nm="Piano"
V:5 treble 
V:6 treble 
V:4 bass 
V:7 bass 
V:1
"^Allegro giusto" z2 | z6 | z6 | z6 | z6 | z6 | z6 | z2 z2!mf! E2 | (AG) (AB) (cd) | e2 A2 e2 | %10
w: |||||||Già\_il|so- * le _ dal _|Gan- ge, già\_il|
 f2 !>!e3 d | .c2 .A2 .B2 | c2 B2 G2 | c2 !>!B3 A | B2 E2 e2 | f2 e3 d | (c3 d) c d | e2 !>!d3 c | %18
w: so- le dal|Gan- ge più|chia- ro, più|chia- ro sfa-|vil- la, più|chia- ro sfa-|vil- * la, più|chia- ro, più|
 B2 A2 B2[Q:1/4=124]"^poco rit."[Q:1/4=122][Q:1/4=118] | (c2 !>!B4)[Q:1/4=116] | %20
w: chia- ro sfa-|vil- *|
[Q:1/4=128]"^a tempo" A6 | z2 z2 B2 | c2 !>!B3 A | G2 G2 A2 | B2 (cB) (AG) | F2 E2 z2 | z2 z2 A2 | %27
w: la,|e|ter- ge\_o- gni|stil- la del-|l'al- ba _ che _|pian- ge,|del-|
"^cresc." A2"^poco a poco e legatiss." G2 F2 | G2 F2 G2 |!<(! A2 G2 F2 | G2 F2!<)! G2 | %31
w: l'al- ba che|pian- ge, del-|l'al- ba che|pian- ge, del-|
!<(! A2 G2 F2!<)! |!f! (G2 F4)[Q:1/4=117][Q:1/4=108] |[Q:1/4=128]"^a tempo" E6- | E6 | z2 z2 E2 | %36
w: l'al- ba che|pian- *|ge.|_|Già\_il|
!mp! (AG) (AB) (cd) | e2 A2 e2 | f2 e3 d | c2 A2 B2 | c2 B2 G2 | c2 !>!B3 A | B2 E2 e2 | f2 e3 d | %44
w: so- * le _ dal *|Gan- ge, già\_il|so- le dal|Gan- ge più|chia- ro, più|chia- ro sfa-|vi- la, più|chia- ro sfa-|
 (c3 d) c d | e2 !>!d3 c |"^rit." !>!B2 !>!A2 !>!B2[Q:1/4=124][Q:1/4=118] | %47
w: vi- * la, più|chia- ro, più|chia- ro sfa-|
 (c2 !>!TB4)[Q:1/4=114][Q:1/4=108] |[Q:1/4=128]"_a tempo" A6 | z6 | z6 | z6 | z6 | z6 | %54
w: vil- *|la.~||||||
 z2 z2!mf! E2 | (AG) (AB) (cd) | .e2 .A2 .e2 | f2 !>!e3 d | .c2 .A2 .B2 | (c2 !>!B2) G2 | c2 B3 A | %61
w: Col~|rag- * gio _ do- *|ra- to, col|rag- gio do-|ra- to in-|gem- ma, in-|gem- ma\_o- gni|
 B2 E2 e2 | f2 !>!e3 d | (c3 d) c d | (e2 !>!d3) c |[Q:1/4=126]"^poco  rit." B2 A2 B2[Q:1/4=124] | %66
w: ste- lo, in-|gem- ma\_o- gni|ste- * lo, in-|ge- ma, in-|gem- ma\_o- gni|
 (!>!c2 B4)[Q:1/4=118][Q:1/4=116] |[Q:1/4=128]"^a tempo" A6 | z2 z2 B2 | c2 !>!B3 A | G2 G2 A2 | %71
w: ste- *|lo,|e~|gli\_as- tri del|cie- lo di-|
 B2 (cB) (AG) | F2 E2 z2 | z2 z2!pp! A2 |"^cresc." A2"^poco  a" G2 F2 |"^poco" G2 F2 G2 | %76
w: pin- ge _ nel _|pra- to;|di-|pin- ge nel|pra- to, di-|
 A2 G2 F2 |!<(! G2 F2 G2!<)! | A2 G2 F2 |[Q:1/4=126]!f! (G2 F4)[Q:1/4=116][Q:1/4=108] | %80
w: pin- ge nel|pra- to, di-|pin- ge nel|pra- *|
[Q:1/4=128]"^a tempo" E6- | E6 | z2 z2 E2 | (AG) (AB) (cd) | .e2 .A2 .e2 | f2 !>!e3 d | c2 A2 B2 | %87
w: to.|_|Col|rag- * gio _ do- *|ra- to col|rag- gio do-|ra- to in-|
 (c2 B2) G2 | c2 !>!B3 A | B2 E2 e2 | f2 e3 d | (c3 d) c d | e2 !>!d3 c | %93
w: gem- ma, in-|gem- ma\_o- gni|ste- lo, in-|gem- ma\_o- gni|ste- * lo, in-|gem- ma, in-|
[Q:1/4=126]"^poco  rit." !>!B2 !>!A2 !>!B2[Q:1/4=120][Q:1/4=115] | (c2 !>!TB4)[Q:1/4=108] | %95
w: gem- ma\_o- gni|ste- *|
[Q:1/4=128]"_a tempo" A2 z4 | z6 | z6 | z6 | z6 | %100
w: lo.|||||
[Q:1/4=126] z6[Q:1/4=120][Q:1/4=114][Q:1/4=106][Q:1/4=120]"_a tempo" | z6 | !fermata!z6 |] %103
w: |||
V:2
 x2 | x6 | x6 | x6 | x6 | x6 | x6 | x6 | x6 | x6 | x6 | x6 | x6 | x6 | x6 | x6 | x6 | x6 | x6 | %19
 x6 | x6 | x6 | x6 | x6 | x6 | x6 | x6 | x6 | x6 | x6 | x6 | x6 | x6 | x6 | x6 | x6 | x6 | x6 | %38
 x6 | x6 | x6 | x6 | x6 | x6 | x6 | x6 | x6 | x5 (G/A/) | x6 | x6 | x6 | x6 | x6 | x6 | x6 | x6 | %56
 x6 | x6 | x6 | x6 | x6 | x6 | x6 | x6 | x6 | x6 | x6 | x6 | x6 | x6 | x6 | x6 | x6 | x6 | x6 | %75
 x6 | x6 | x6 | x6 | x6 | x6 | x6 | x6 | x6 | x6 | x6 | x6 | x6 | x6 | x6 | x6 | x6 | x6 | x6 | %94
 x5 (A/B/) | x6 | x6 | x6 | x6 | x6 | x6 | x6 | x6 |] %103
V:3
!mf! z2 | z2 z2 E2 | (!>!AGABcd) | .e2 .A2 .e2 | (f2 !>!e3 d) | (([Ac]2 [Fd]2)) .[FB]2 | (!>!TB6 | %7
 [CA]4) [B,E]2 | (.[CFA]2 .[CFA]2 .[CFA]2) | (.[CEA]2 .[CEA]2 .[CEA]2) | %10
 (.[B,DFA]2 .[B,DEA]2 .[B,DEG]2) | (.[CEA]2 .[CEA]2 .[EB]2) | .[Ec]2 .[EB]2 .[EG]2 | c2 (!>!B3 A) | %14
 (.[EG]2 .[EG]2 .[EAe]2) | [Adf]2 [GBe]2 [GBd]2 | (.[Ac]2 .[FAc]2 .[FAc]2) | %17
 (.[EAe]2 .[FAd]2 .[FAc]2) | (.[DGB]2 .[CFA]2 .[B,FB]2) | (.[EAc]2 .[EAB]2 .[EGd]2) | %20
 (!>!c3 B A2) | ((!>![B,EG]2 [A,CF]2)) .[B,EB]2 | (c2 B2 A2 | [EG]2) [CEG]2 [CEA]2 | B2 (cB) (AG) | %25
 ([A,=DF]2 [G,CE]2) .[G,CE]2 | .[A,CF]2 (.[CFA]2 .[CFA]2) |"_cresc." [CFA]2 [B,EG]2 [CEF]2 | %28
 (.[B,EG]2 .[B,=DF]2 .[B,EG]2) |!<(! (.[A,EA]2 .[B,EG]2 .[CEF]2) | %30
 (.[B,EG]2 .[B,=DF]2!<)! .[B,EG]2) |!<(! (.[A,EA]2 .[B,EG]2 .[CEF]2)!<)! | %32
 [B,EG]2 [A,EF]2 [A,=DF]2 | [G,B,E]2 (!>!e2 [GBd]2) | (!>!c3 B A2) | %35
 ((!>![B,EG]2 [CEA]2)) .[B,E]2 | (.[CFA]2 .[CFA]2 .[CFA]2) | [CEA]2 [CEA]2 [CEA]2 | %38
 [B,DFA]2 [B,DEG]2 [B,DEG]2 | [CEA]2 [CEA]2 [EB]2 | ([Ec]2 [EB]2 [EG]2) | (c2 !>!B3 A) | %42
 (.[EG]2 .G2) !>![EAe]2 | (.[Adf]2 .[GBe]2 .[GBd]2) | (.[Ac]2 .[FAc]2 .[FAc]2) | %45
 (.[EAe]2 .[FAd]2 .[FAc]2) | (.[DGB]2 .[CFA]2 .[B,FB]2) | [EAc]2 !>![EAB]2 !>![DGB]2 | %48
 [CEA]2 z2 !>!E2 | (!>!AGABcd) | e2 A2 e2 | f2 e3 d | (([Ac]2 [Fd]2)) [FB]2 | (TB6 | %54
 [CA]4) [B,E]2 | (.[CFA]2 .[CFA]2 .[CFA]2) | (.[CEA]2 .[CEA]2 .[CEA]2) | %57
 (.[B,DFA]2 .[B,DEA]2 .[B,DEG]2) | (.[CEA]2 .[CEA]2 .[EB]2) | .[Ec]2 .[EB]2 .[EG]2 | (c2 !>!B3 A) | %61
 (.[EG]2 .[EG]2 .[EAe]2) | (.[A_df]2 .[GBe]2 .[GBd]2) | (.[Ac]2 .[FAc]2 .[FAc]2) | %64
 (.[EAe]2 .[FAd]2 .[FAc]2) | (.[DGB]2 .[CFA]2 .[B,FB]2) | .[EAc]2 .[EAB]2 .[EGd]2 | (!>!c3 B A2) | %68
 ([B,EG]2 [A,CF]2) .[B,EB]2 | c2 B2 A2 | (.[EG]2 .[CEG]2 .[CEA]2) | B2 (cB) (AG) | %72
 [A,=DF]2 [G,CE]2 [G,CE]2 | [A,CF]2 [CFA]2 [CFA]2 |"_cresc." [CFA]2"_poco  a" [B,EG]2 [CEF]2 | %75
"_poco" (.[B,EG]2 .[B,=DF]2 .[B,EG]2) | (.[A,EA]2 .[B,EG]2 .[CEF]2) | %77
!<(! (.[B,EG]2 .[B,=DF]2 .[B,EG]2)!<)! | (.[A,EA]2 .[B,EG]2 .[CEF]2) | %79
 (.[B,EG]2 .[A,EF]2 .[A,=DF]2) |[I:staff +1] [G,B,E]2[I:staff -1] (e2 !>![EG_d]2) | (c3 B A2) | %82
 ((!>![B,EG]2 [CEA]2)) [B,E]2 | [CFA]2 [CFA]2 [CFA]2 | (.[CEA]2 .[CEA]2 .[CEA]2) | %85
 (.[B,DFA]2 .[B,DEG]2 .[B,DEG]2) | (.[CEA]2 .[CEA]2) .[EB]2 | (.[Ec]2 .[EB]2 .[EG]2) | %88
 (c2 !>!B3 A) | [EG]2 [EG]2 [EAe]2 | [A_df]2 [GBe]2 [GBd]2 | [Ac]2 [FAc]2 [FAc]2 | %92
 [EAe]2 [FAd]2 [FAc]2 | !>![DGB]2 !>![CFA]2 !>![B,FB]2 | !>![EAc]2 !>![EAB]2 !>![DGB]2 | %95
 [CEA]2 z2 !>!E2 | (!>!AGABcd) | .e2 .A2 .e2 | f2 !>!e3 d | ([Ac]2 [Fd]2) [FB]2 | !>!TB6 | %101
 [CA]2 !>![CEA]2 !>![CEA]2 | !fermata![CEA]6 |] %103
V:4
 .E,2 | (!>!A,G,A,B,CD) | (!>!CB,CG,A,B,) | C3 (B,CA,) | (D2 C2 B,2) | A,4- [D,A,]2 | E,6 | %7
 [A,,A,]2 (A,2 G,2 |"^leggero" F,2 E,2 D,2 | C,3) (B,,C,A,,) | (D,2 E,2) .E,,2 | .A,,2 (A,2 G,2 | %12
 A,2 G,2 E,2) | (A,2 G,2 F,2 | !>!E,3 _D, C,2) | (D,2 E,2) .E,2 | (F,2 !>!E,3 D, | C,2 D,2 D,,2) | %18
"^poco rit." (E,,2 F,,2 D,2) | E,4 !>!E,,2 |"^a tempo" (A,,G,,A,,B,,C,D,) | (E,2 F,2 G,2) | %22
 (A,2 !>!G,2 B,,2 | C,2) (!>!B,,3 A,,) | (G,,2 A,,4) | B,,2 (C,B,,A,,G,,) | .F,,2!pp! (F,G,F,E,) | %27
 (=D,2"^poco a poco   e legatiss." E,2 A,,2) | B,,4 B,,2 | (C,2 B,,2 A,,2 | B,,4) !>!B,,2 | %31
 (C,2 B,,2 A,,2 |!f! B,,4) !>!B,,2 |"^a tempo" [E,,E,]4 !>!E,,2 |!mf! (A,,!<(!G,,A,,B,,C,D,)!<)! | %35
 (!>!E,2 A,,2) (G,2 | F,2!mp! E,2 D,2 | C,3) (B,,C,A,,) | (D,2 E,2) !>!E,,2 | .A,,2 (A,2 G,2 | %40
 A,2 G,2 E,2) | (A,2 G,2 F,2) | (!>!E,3 _D, C,2) | (_D,2 E,2) .E,2 | (F,2 E,3 D,) | %45
 (C,2 D,2) D,,2 |"^rit." E,,2 F,,2 !>!D,2 | E,4 !>!E,,2 |!f!{/A,,} (A,G,A,B,CD) | (CB,CG,A,B,) | %50
 C3 (B, CA,) | D2 C2 B,2 | A,4- [D,A,]2 | E,6 | [A,,A,]2 (A,2 G,2 | F,2 E,2 D,2 | C,3) (B,,C,A,,) | %57
 (D,2 E,2) .E,,2 | .A,,2 (A,2 G,2 | A,2 G,2 E,2) | (A,2 G,2 F,2) | (!>!E,3 D, C,2) | D,2 E,2 .E,2 | %63
 (F,2 !>!E,3 D, | C,2 D,2) (D,,2 |"^poco  rit." E,,2 F,,2 D,2) | E,4 !>!E,,2 | %67
"^a tempo" (A,,G,,A,,B,,C,D,) | (E,2 F,2 G,2) | (A,2 G,2 B,,2) | (C,2 B,,3 A,,) | (G,,2 A,,4) | %72
 B,,2 (C,B,,A,,G,, | F,,2) (F,G,!pp!F,E,) | (=D,2 E,2) A,,2 | B,,4 !>!B,,2 | (C,2 B,,2 A,,2 | %77
 B,,4) !>!B,,2 | (C,2 B,,2 A,,2 |!f! B,,4) !>!B,,2 | E,4 !>!E,,2 | (A,,G,,A,,B,,C,D,) | %82
 (!>!E,2 A,,2) G,2 | (F,2 E,2 D,2 | C,3) (B,,C,A,,) | (D,2 E,2) .E,,2 | .A,,2 (A,2 G,2 | %87
 A,2 G,2 E,2) | (A,2 G,2 F,2 | !>!E,3 _D, C,2) | (_D,2 E,2) .E,2 | F,2 !>!E,3 D, | C,2 D,2 D,,2 | %93
"^poco  rit." E,,2 F,,2 D,2 | E,4 !>!E,,2 |!f!{/A,,} (!>!A,G,A,B,CD) | %96
"^brillante"!f! (CB,CG,A,B,) | (C3 B,CA,) | (D2 C2 B,2) | A,4- [D,A,]2 |"^rit." E,4 E,,2 | %101
 [A,,A,]2 !>![C,,C,]2 !>![E,,E,]2 | !fermata![A,,,A,,]6 |] %103
V:5
 x2 | x6 | x6 | x6 | A4 G2 | x6 | (E4 D2) | x6 | x6 | x6 | x6 | x6 | x6 | E2 (E2 =D2) | x6 | x6 | %16
 x6 | x6 | x6 | x6 | [EA]4 [CE]2 | x6 | E2 E3 =D | x6 | (E2 E2 [CE]2) | x6 | x6 | x6 | x6 | x6 | %30
 x6 | x6 | x6 | x6 | [EA]4 [CE]2 | x6 | x6 | x6 | x6 | x6 | x6 | E2 E2 =D2 | x6 | x6 | x6 | x6 | %46
 x6 | x6 | x6 | x6 | x6 | (!>!A4 G2) | x6 | (E4 D2) | x6 | x6 | x6 | x6 | x6 | x6 | E2 E2 =D2 | %61
 x6 | x6 | x6 | x6 | x6 | x6 | [EA]4 [CE]2 | x6 | E2 !>!E3 =D | x6 | E2 E2 [CE]2 | x6 | x6 | x6 | %75
 x6 | x6 | x6 | x6 | x6 | x6 | [EA]4 [CE]2 | x6 | x6 | x6 | x6 | x6 | x6 | (.E2 .E2 .=D2) | x6 | %90
 x6 | x6 | x6 | x6 | x6 | x6 | x6 | x6 | A4 G2 | x6 | (E4 D2) | x6 | x6 |] %103
V:6
 x2 | x6 | x6 | x6 | x6 | x6 | x5 (A/B/) | x6 | x6 | x6 | x6 | x6 | x6 | x6 | x6 | x6 | x6 | x6 | %18
 x6 | x6 | x6 | x6 | x6 | x6 | x6 | x6 | x6 | x6 | x6 | x6 | x6 | x6 | x6 | x6 | x6 | x6 | x6 | %37
 x6 | x6 | x6 | x6 | x6 | x6 | x6 | x6 | x6 | x6 | x6 | x6 | x6 | x6 | x6 | x6 | x5 (A/B/) | x6 | %55
 x6 | x6 | x6 | x6 | x6 | x6 | x6 | x6 | x6 | x6 | x6 | x6 | x6 | x6 | x6 | x6 | x6 | x6 | x6 | %74
 x6 | x6 | x6 | x6 | x6 | x6 | x6 | x6 | x6 | x6 | x6 | x6 | x6 | x6 | x6 | x6 | x6 | x6 | x6 | %93
 x6 | x6 | x6 | x6 | x6 | x6 | x6 | x5 (A/B/) | x6 | x6 |] %103
V:7
 x2 | x6 | x6 | x6 | x6 | x6 | A,2 !>!G,4 | x6 | x6 | x6 | x6 | x6 | x6 | x6 | x6 | x6 | x6 | x6 | %18
 x6 | x6 | x6 | x6 | x6 | x6 | x6 | x6 | x6 | x6 | x6 | x6 | x6 | x6 | x6 | x6 | x6 | x6 | x6 | %37
 x6 | x6 | x6 | x6 | x6 | x6 | x6 | x6 | x6 | x6 | x6 | x6 | x6 | x6 | x6 | x6 | A,2 !>!G,4 | x6 | %55
 x6 | x6 | x6 | x6 | x6 | x6 | x6 | x6 | x6 | x6 | x6 | x6 | x6 | x6 | x6 | x6 | x6 | x6 | x6 | %74
 x6 | x6 | x6 | x6 | x6 | x6 | x6 | x6 | x6 | x6 | x6 | x6 | x6 | x6 | x6 | x6 | x6 | x6 | x6 | %93
 x6 | x6 | x6 | x6 | x6 | x6 | x6 | A,2 !>!G,4 | x6 | x6 |] %103

